X: 36961
T: Shropshire Rounds, The
R: three-two
M: 3/2
K: Dmajor
|:d2c2B2|Ad GB Ac|d/e/d c/d/c B/c/B|1 AD DF ED:|2 Ac df ef||
|:ge fd ge|ae eg fe|fA Ge cA|1 d2 df ef:|2 d2 dc de||
|:fg/f/ ef/e/ cB|ce eB ce|f/g/a Be/d/ cA|1 d2 dc de:|2 dD D/E/F ED:|
|:D2A2G2|F2E2F2|D2A2G2|1 F2D4:|2 F2D2A,2||
|:C2 A,2 B,2|C4D2-|D2E2G2|1 F2D2A,2:|2 F2D2A,2||
|:D2C2A,2|G2^G2A2-|A2^G2=G2|1 F2D2A,2:|2 F2D4:|

